public/images/down-left.svg

<?xml version="1.0" encoding="UTF-8" standalone="no"?>
<svg viewBox="0 -30 118 118" version="1.1" xmlns="http://www.w3.org/2000/svg" xmlns:xlink="http://www.w3.org/1999/xlink">
    <g id="Page-1" stroke="none" stroke-width="1" fill="none" fill-rule="evenodd">
        <path d="M16.05,50.65 L16.1,12.05 L25.55,12.05 C61.0833333,13.5166667 79.25,32.9333333 80.05,70.3 L80.05,71.9 L80.05,72.05 L37.35,72.05 L37.35,68.2 C36.8833333,60.1 33.45,54.8166667 27.05,52.35 C24.05,51.15 20.3833333,50.5833333 16.05,50.65" id="Shape" fill="#E5E5E5"></path>
        <path d="M16.1,12.05 L16.1,8.05 L25.55,8.05 C61.0833333,9.51666667 79.25,28.9333333 80.05,66.3 L80.05,67.9 L80.05,70.3 C79.25,32.9333333 61.0833333,13.5166667 25.55,12.05 L16.1,12.05" id="Shape" fill="#F3F3F3"></path>
        <path d="M16.1,12.05 L16.05,50.65 L16.05,54.65 L4.05,54.65 L4.05,4.05 L16.1,4.05 L16.1,8.05 L16.1,12.05 M80.05,72.05 L83.95,72.05 L83.95,84.1 L79.95,84.1 L41.35,84.05 L33.35,84.05 L33.35,72.05 L37.35,72.05 L80.05,72.05" id="Shape" fill="#B6B6B6"></path>
        <path d="M25.75,4.05 C63.75,5.55 83.1833333,26.2833333 84.05,66.25 L84.05,66.3 L84.05,67.9 L84.05,68.05 C85.1166667,68.0833333 86.0333333,68.4833333 86.8,69.25 C87.5666667,70.0166667 87.95,70.95 87.95,72.05 L87.95,84.1 C87.95,85.2 87.5666667,86.15 86.8,86.95 C86,87.7166667 85.05,88.1 83.95,88.1 L79.95,88.1 L41.35,88.05 L33.35,88.05 C32.25,88.05 31.3166667,87.6666667 30.55,86.9 C29.75,86.1 29.35,85.15 29.35,84.05 L29.35,72.05 C29.35,70.95 29.75,70.0166667 30.55,69.25 C31.3166667,68.45 32.25,68.05 33.35,68.05 C32.8833333,62.0166667 30.3,58.0333333 25.6,56.1 C23.9666667,55.4666667 22.1166667,55.0333333 20.05,54.8 C20.0166667,55.8333333 19.6333333,56.7333333 18.9,57.5 C18.1,58.2666667 17.15,58.65 16.05,58.65 L4.05,58.65 C2.95,58.65 2.01666667,58.2666667 1.25,57.5 C0.45,56.7 0.05,55.75 0.05,54.65 L0.05,4.05 C0.05,2.95 0.45,2.01666667 1.25,1.25 C2.01666667,0.45 2.95,0.05 4.05,0.05 L16.1,0.05 C17.2,0.05 18.15,0.45 18.95,1.25 C19.7166667,2.01666667 20.1,2.95 20.1,4.05 L25.55,4.05 L25.75,4.05 M16.1,8.05 L16.1,4.05 L4.05,4.05 L4.05,54.65 L16.05,54.65 L16.05,50.65 C20.3833333,50.5833333 24.05,51.15 27.05,52.35 C33.45,54.8166667 36.8833333,60.1 37.35,68.2 L37.35,72.05 L33.35,72.05 L33.35,84.05 L41.35,84.05 L79.95,84.1 L83.95,84.1 L83.95,72.05 L80.05,72.05 L80.05,71.9 L80.05,70.3 L80.05,67.9 L80.05,66.3 C79.25,28.9333333 61.0833333,9.51666667 25.55,8.05 L16.1,8.05" id="Shape" fill="#777777"></path>
    </g>
</svg>

<svg viewBox="0 -30 118 118" xmlns="http://www.w3.org/2000/svg"><g fill="none" fill-rule="evenodd"><path d="M16.05 50.65l.05-38.6h9.45c35.533 1.467 53.7 20.883 54.5 58.25v1.75h-42.7V68.2c-.467-8.1-3.9-13.383-10.3-15.85-3-1.2-6.667-1.767-11-1.7" fill="#E5E5E5"/><path d="M16.1 12.05v-4h9.45c35.533 1.467 53.7 20.883 54.5 58.25v4c-.8-37.367-18.967-56.783-54.5-58.25H16.1" fill="#F3F3F3"/><path d="M16.1 12.05l-.05 38.6v4h-12V4.05H16.1v8m63.95 60h3.9V84.1h-4l-38.6-.05h-8v-12h46.7" fill="#B6B6B6"/><path d="M25.75 4.05c38 1.5 57.433 22.233 58.3 62.2v1.8c1.067.033 1.983.433 2.75 1.2.767.767 1.15 1.7 1.15 2.8V84.1c0 1.1-.383 2.05-1.15 2.85-.8.767-1.75 1.15-2.85 1.15h-4l-38.6-.05h-8c-1.1 0-2.033-.383-2.8-1.15-.8-.8-1.2-1.75-1.2-2.85v-12c0-1.1.4-2.033 1.2-2.8.767-.8 1.7-1.2 2.8-1.2-.467-6.033-3.05-10.017-7.75-11.95-1.633-.633-3.483-1.067-5.55-1.3-.033 1.033-.417 1.933-1.15 2.7-.8.767-1.75 1.15-2.85 1.15h-12c-1.1 0-2.033-.383-2.8-1.15-.8-.8-1.2-1.75-1.2-2.85V4.05c0-1.1.4-2.033 1.2-2.8.767-.8 1.7-1.2 2.8-1.2H16.1c1.1 0 2.05.4 2.85 1.2.767.767 1.15 1.7 1.15 2.8h5.65m-9.65 4v-4H4.05v50.6h12v-4c4.333-.067 8 .5 11 1.7 6.4 2.467 9.833 7.75 10.3 15.85v3.85h-4v12h8l38.6.05h4V72.05h-3.9V66.3c-.8-37.367-18.967-56.783-54.5-58.25H16.1" fill="#777"/></g></svg>
